storage/app/icons/phosphoricons/bold/crane-tower-bold.svg

<svg xmlns="http://www.w3.org/2000/svg" fill="currentColor" viewBox="0 0 256 256"><path d="M240 76H111.42L90.73 34.63A12 12 0 0 0 80 28H48a12 12 0 0 0-12 12v36H24a12 12 0 0 0 0 24h12v104H24a12 12 0 0 0 0 24h104a12 12 0 0 0 0-24h-12V100h88v80h-12v-4a12 12 0 0 0-24 0v8a20 20 0 0 0 20 20h20a20 20 0 0 0 20-20v-84h12a12 12 0 0 0 0-24M60 52h12.58l12 24H60Zm0 152v-40h32v40Zm32-64H60v-40h32Z"/></svg>

<svg xmlns="http://www.w3.org/2000/svg" viewBox="0 0 256 256" fill="currentColor"><path d="M240,76H111.42L90.73,34.63A12,12,0,0,0,80,28H48A12,12,0,0,0,36,40V76H24a12,12,0,0,0,0,24H36V204H24a12,12,0,0,0,0,24H128a12,12,0,0,0,0-24H116V100h88v80H192v-4a12,12,0,0,0-24,0v8a20,20,0,0,0,20,20h20a20,20,0,0,0,20-20V100h12a12,12,0,0,0,0-24ZM60,52H72.58l12,24H60Zm0,152V164H92v40Zm32-64H60V100H92Z"/></svg>
